X:1
T:Search Light
T:Search Light
T:A. F. Myers
T:Bertha M. Schweizer, 1894
T:Public Domain Courtesy of the Cyber Hymnal™
T:Public Domain Courtesy of the Cyber Hymnal™
C:A. F. Myers
Z:Public Domain
Z:Courtesy of the Cyber Hymnal™
%%score ( 1 2 ) ( 3 4 )
L:1/8
Q:1/4=98
M:6/8
K:Ab
V:1 treble 
V:2 treble 
V:3 bass 
V:4 bass 
V:1
 E[Ec]>[Ec] [Fd] [Ec]2 | [FB][FA]>[DF] [FA]3 | [EA][EA]>[EA] [Ec][Ec][Ec] | [=DB][DF]>[DB] [_DB]3 | %4
w: 1.~Flash out the search light,|dark is the way,|Some wear- y wand- ’rer is|go- ing a- stray,|
w: 2.~Flash out the search light,|bright let it shine,|Bear- ing the mes- sage of|mer- cy di- vine,|
w: 3.~Light up the dark- ness,|scat- ter the night,|There is a bro- ther who|longs for the light,|
 [Ec]>[Ec][Ec] [Fd][Ec][EB] | [FA][DF][FA] [FA]3 | [FA]>[EG][DF] [CE]<[Ec][Ec] | %7
w: Ma- ny temp- ta- tions lurk|now at his side,|Ma- ny the per- ils that|
w: Christ the Re- deem- er who|seek- eth for thee,|Of- fers a par- don so|
w: Now he is fal- ter- ing,|do not de- lay,|Flash out the search light and|
 [DB][DF][DG] [CA]3 ||"^Refrain" [Fd][Fd]>[Fd] [Fd] [Fd]2 | [Ec][Ec]>[Ec] [Ec]3 | %10
w: in his path hide.|||
w: full and so free.|Flash out the search light,|bright- en the way,|
w: bright- en the way.|||
 [Ac][GB]A [EA][AB][Ac] | B[Ac][A=d] [Ge]3 | [Ec][Ec]>[Ec] [Fd] [Ec]2 | [DB][DA]>[DF] [DB] [DA]2 | %14
w: ||||
w: Fol- low the souls that in|dark- ened paths stray,|Search in the high- ways,|search in the by- ways,|
w: ||||
 [FA]>[EG][DF] [CE]/ !fermata![Ec]2 |"^riten." [=DB]>[DF][_DG] [CA]3 |] %16
w: ||
w: Tell them that Je- sus|bids them come home.|
w: ||
V:2
 E x5 | x6 | x6 | x6 | x6 | x6 | x6 | x6 || x6 | x6 | x2 A x3 | B x5 | x6 | x6 | x11/2 | x6 |] %16
V:3
 [A,C]A,>A, A, A,2 | [D,D][D,D]>[D,A,] [D,D]3 | [C,A,][C,A,]>[C,A,] [A,,A,][A,,A,][A,,A,] | %3
 [B,,F,][B,,A,]>[B,,A,] [E,G,]3 | A,>A,A, A,A,[C,A,] | [D,D][D,A,][D,D] [D,D]3 | %6
 [D,D]>[D,D][D,A,] [E,A,]<[E,A,][E,A,] | [E,G,][E,B,][E,B,] [A,,A,]3 || %8
 [D,A,][D,A,]>[D,A,] [D,A,] [D,A,]2 | A,A,>A, A,3 | [A,E][A,D][A,C] [A,C][A,D][A,E] | %11
 [G,E][F,B,][F,B,] [E,B,]3 | [A,,A,][A,,A,]>[A,,A,] [A,,A,] [A,,A,]2 | %13
 [D,F,][D,F,]>[D,A,] [D,F,] [D,F,]2 | [D,A,]>[D,A,][D,A,] [E,A,]/ !fermata![E,A,]2 | %15
 [F,B,]>[F,B,][E,B,] [A,,A,]3 |] %16
V:4
 x A,>A, A, A,2 | x6 | x6 | x6 | A,>A,A, A,A, x | x6 | x6 | x6 || x6 | A,A,>A, A,3 | x6 | x6 | x6 | %13
 x6 | x11/2 | x6 |] %16

